#src/img/common/fb.svg

<svg width="26" height="26" viewBox="0 0 26 26" fill="none" xmlns="http://www.w3.org/2000/svg">
  <path d="M10.7402 23.3718H14.8027V14.3074H17.8318L18.4082 10.5496H14.8027V8.11206C14.8027 7.08374 15.3055 6.08081 16.9203 6.08081H18.5605V2.88159C18.5605 2.88159 17.0727 2.62769 15.6508 2.62769C12.6801 2.62769 10.7402 4.42788 10.7402 7.6855V10.5496H7.43945V14.3074H10.7402V23.3718Z" fill="white"/>
</svg>

<svg width="26" height="26" fill="none" xmlns="http://www.w3.org/2000/svg"><path d="M10.74 23.372h4.063v-9.065h3.029l.576-3.757h-3.605V8.112c0-1.028.502-2.031 2.117-2.031h1.64v-3.2s-1.487-.253-2.91-.253c-2.97 0-4.91 1.8-4.91 5.057v2.865h-3.3v3.757h3.3v9.065z" fill="#fff"/></svg>
